svgs/thin/hat-santa.svg

<svg xmlns="http://www.w3.org/2000/svg" viewBox="0 0 640 512"><!--! Font Awesome Pro 6.0.0-alpha3 by @fontawesome - https://fontawesome.com License - https://fontawesome.com/license (Commercial License) --><path d="M640 240c0-11.09-5.844-21.09-15.19-26.84c2.625-10.59-.2813-21.84-8.188-29.78c-7.938-7.938-19.16-10.97-29.78-8.188C581.1 165.8 571.1 160 560 160s-21.09 5.844-26.84 15.19c-10.69-2.781-21.84 .2813-29.78 8.188c-7.906 7.938-10.81 19.19-8.188 29.78C485.8 218.9 480 228.9 480 240s5.844 21.09 15.19 26.84c-2.625 10.62 .2656 21.78 8.234 29.78c7.844 7.656 18.86 11.3 29.8 8.268C538.1 314.1 548.9 320 560 320s21.05-5.886 26.8-15.14c11.03 3 21.67-.4581 29.83-8.239c7.906-7.938 10.81-19.19 8.188-29.78C634.2 261.1 640 251.1 640 240zM612.3 255.1c-2.312 .7187-4.156 2.406-5.062 4.656c-.9062 2.219-.75 4.75 .4062 6.844c3.438 6.312 2.49 13.77-2.229 18.52c-4.906 4.688-10.21 7.169-18.99 2.544c-2.094-1.156-4.656-1.25-6.812-.3438c-2.219 .9375-3.875 2.781-4.594 5.062C572.9 299.3 566.9 304 560 304s-12.94-4.688-15.06-11.66c-.7187-2.312-2.406-4.156-4.625-5.062c-.9687-.4062-2-.5938-3.031-.5938c-1.312 0-2.625 .3125-3.812 .9687c-8.406 4.531-14.1 2.129-18.72-2.371c-4.875-4.906-5.869-12.41-2.432-18.72c1.156-2.094 1.312-4.625 .4062-6.844c-.9062-2.25-2.75-3.938-5.062-4.656C500.7 252.9 496 246.9 496 240s4.688-12.94 11.66-15.06c2.312-.7187 4.156-2.406 5.062-4.656c.9062-2.219 .75-4.75-.4062-6.844c-3.438-6.312-2.5-13.84 2.375-18.75c4.938-4.844 12.47-5.781 18.75-2.375c2.125 1.188 4.656 1.375 6.844 .4062c2.25-.9062 3.938-2.75 4.656-5.062C547.1 180.7 553.1 176 560 176s12.94 4.688 15.06 11.66c.7187 2.312 2.406 4.156 4.656 5.062c2.25 .9687 4.75 .7813 6.844-.4062c6.344-3.469 13.84-2.469 18.75 2.375c4.875 4.906 5.812 12.44 2.375 18.75c-1.156 2.094-1.312 4.625-.4062 6.844c.9062 2.25 2.75 3.938 5.062 4.656C619.3 227.1 624 233.1 624 240S619.3 252.9 612.3 255.1zM448 384H63.1C28.65 384 0 412.7 0 447.1C0 465.7 14.33 480 32 480h448c17.67 0 32-14.33 32-32C512 412.7 483.3 384 448 384zM480 464H32c-8.822 0-16-7.176-16-16c0-26.47 21.53-48 48-48h384c26.47 0 48 21.53 48 48C496 456.8 488.8 464 480 464zM455.8 219.5c3.531 0 6.75-2.344 7.719-5.906c1.156-4.25-1.344-8.656-5.625-9.812l-70.99-19.29l-11.48-27.55c-1.688-4.094-6.406-6.062-10.44-4.312c-4.094 1.688-6.031 6.375-4.312 10.44l80 192C441.9 358.2 444.9 360 448 360c1.031 0 2.062-.1875 3.062-.625c4.094-1.688 6.031-6.375 4.312-10.44l-60.73-145.8l59.01 16.04C454.3 219.4 455.1 219.5 455.8 219.5zM61 359.4C61.97 359.8 63 360 64 360c3.156 0 6.156-1.875 7.406-5l84.34-207.4C180.1 87.09 239.7 48 305.3 48c47.66 0 92.72 20.88 123.4 56.94l45.88 60.63c2.656 3.562 7.688 4.219 11.19 1.562c3.531-2.656 4.219-7.688 1.562-11.19l-46.16-61C407.1 54.94 357.6 32 305.3 32C233.2 32 168.7 74.94 140.1 141.5L56.59 349C54.94 353.1 56.91 357.8 61 359.4z"/></svg>

<svg xmlns="http://www.w3.org/2000/svg" viewBox="0 0 640 512"><!-- Font Awesome Pro 6.0.0-alpha2 by @fontawesome - https://fontawesome.com License - https://fontawesome.com/license (Commercial License) --><path d="M640 240C640 228.906 634.156 218.906 624.812 213.156C627.437 202.562 624.531 191.312 616.625 183.375C608.687 175.437 597.469 172.406 586.844 175.187C581.094 165.844 571.094 160 560 160S538.906 165.844 533.156 175.188C522.469 172.406 511.312 175.469 503.375 183.375C495.469 191.313 492.562 202.563 495.187 213.156C485.844 218.906 480 228.906 480 240S485.844 261.094 495.188 266.844C492.563 277.469 495.469 288.688 503.438 296.688C511.281 304.344 522.281 308 533.219 304.969C538.969 314.188 548.938 320 560 320S581.031 314.188 586.781 304.938C597.813 307.938 608.469 304.406 616.625 296.625C624.531 288.688 627.438 277.438 624.813 266.844C634.156 261.094 640 251.094 640 240ZM612.344 255.062C610.031 255.781 608.188 257.469 607.281 259.719C606.375 261.937 606.531 264.469 607.688 266.562C611.125 272.875 610.188 280.406 605.469 285.156C600.563 289.844 595.25 292.25 586.469 287.625C584.375 286.469 581.813 286.375 579.656 287.281C577.438 288.219 575.781 290.062 575.063 292.344C572.938 299.312 566.875 304 560 304S547.062 299.312 544.938 292.344C544.219 290.031 542.531 288.188 540.313 287.281C539.344 286.875 538.313 286.688 537.281 286.688C535.969 286.688 534.656 287 533.469 287.656C525.063 292.188 519.313 289.812 514.688 285.312C509.812 280.406 508.875 272.875 512.312 266.562C513.469 264.469 513.625 261.938 512.719 259.719C511.812 257.469 509.969 255.781 507.656 255.062C500.688 252.938 496 246.875 496 240S500.688 227.062 507.656 224.938C509.969 224.219 511.812 222.531 512.719 220.281C513.625 218.063 513.469 215.531 512.312 213.438C508.875 207.125 509.812 199.594 514.688 194.688C519.625 189.844 527.156 188.906 533.438 192.312C535.562 193.5 538.094 193.688 540.281 192.719C542.531 191.812 544.219 189.969 544.938 187.656C547.062 180.688 553.125 176 560 176S572.938 180.688 575.062 187.656C575.781 189.969 577.469 191.812 579.719 192.719C581.969 193.687 584.469 193.5 586.562 192.312C592.906 188.844 600.406 189.844 605.312 194.688C610.188 199.594 611.125 207.125 607.688 213.438C606.531 215.531 606.375 218.062 607.281 220.281C608.188 222.531 610.031 224.219 612.344 224.938C619.312 227.062 624 233.125 624 240S619.312 252.938 612.344 255.062ZM448 384H64C28.654 384 0 412.652 0 448C0 465.672 14.326 480 32 480H480C497.674 480 512 465.672 512 448C512 412.652 483.346 384 448 384ZM480 464H32C23.178 464 16 456.824 16 448C16 421.531 37.533 400 64 400H448C474.467 400 496 421.531 496 448C496 456.824 488.822 464 480 464ZM455.75 219.5C459.281 219.5 462.5 217.156 463.469 213.594C464.625 209.344 462.125 204.938 457.844 203.781L386.854 184.488L375.375 156.938C373.688 152.844 368.969 150.875 364.938 152.625C360.844 154.313 358.906 159 360.625 163.063L440.625 355.063C441.906 358.156 444.875 360 448 360C449.031 360 450.062 359.812 451.062 359.375C455.156 357.688 457.094 353 455.375 348.938L394.643 203.18L453.656 219.219C454.344 219.406 455.062 219.5 455.75 219.5ZM61 359.406C61.969 359.812 63 360 64 360C67.156 360 70.156 358.125 71.406 355L155.75 147.594C180.969 87.094 239.656 48 305.25 48C352.906 48 397.969 68.875 428.625 104.938L474.5 165.562C477.156 169.125 482.188 169.781 485.688 167.125C489.219 164.469 489.906 159.437 487.25 155.937L441.094 94.937C407.125 54.938 357.625 32 305.25 32C233.188 32 168.719 74.938 140.969 141.5L56.594 349C54.938 353.094 56.906 357.75 61 359.406Z"/></svg>
